X:67
T:Piping Pyman Hornpipe,The. JBi.66
T:Butcherâ€™s Hp,aka. JBi.66
M:C
L:1/8
Q:1/2=90
S:James Biggins MS, Leeds, 1779.
R:.Hornpipe
O:England
A:Yorkshire
Z:vmp.Nick Barber & Chris Partington
K:A
â€œ_Key Cmaj in MS?â€
ED|CDEC CDEC|A,2A2A2BA|GABG GABG|E2eTe3dc|!
defd cdec|B2a2g3f/g/|aefd ecBA|E2A2A2:|!
|:cd|ecAc ecAc|fdBd fdBTd|dcde fgab|g2eTe3dc|!
defd cdec|B2a2g3f/g/|aefd ecBA|E2ABA2:|

